X:1
T:5 Poems, Op.19
T:Der Schmied
T:4. Der Schmied
T:Johannes Brahms
T:Ludwig Uhland
T:5 Poems, Op.19
T:OpenScore (CC0)
C:Johannes Brahms
Z:Johann Ludwig Uhland
Z:OpenScore (CC0)
%%score 1 { 2 | 3 }
L:1/8
Q:1/4=144
M:3/4
K:Bb
V:1 treble nm="Singstimme\nVoice"
V:2 treble nm="Pianoforte"
V:3 bass 
V:1
"^Allegro"!f! F2 | d2 F2 d2 | f4 F2 | d2 F2 d2 | f2 d2 F2 | e2 c2 F2 | f2 d2 B2 | %7
w: Ich|hör mein- en,|Schatz, den|Ham- mer er|schwin- get, das|rau- schet, das|klin- get, das|
w: Am|schwar- zen Ka-|min da|si- tzet mein|Lie- ber, doch|geh ich vor-|ü- ber, die|
 G2 A2"^cresc." B2 | c2 F2 F2 | B2 c2 d2 | e2 G2 e2 | (=e6 | f2) _e2 c2 |!f! B4 z2 | z6 | z6 | z6 | %17
w: dringt in die|Wei- te wie|Glo- cken- ge-|\- läu- te durch|Gas-|* sen und|Platz.||||
w: Bäl- ge dann|sau- sen, die|Flam- men auf-|\- brau- sen und|lo-|* dern um|ihn.||||
 z6 | z6 | z6 | z2 z2 :| %21
w: ||||
w: ||||
V:2
!f! (F/E) z/ | (F/D) z/ (F,/D) z/ (f/d) z/ | (f/d) z/ (F/d) z/ (F/D) z/ | %3
 (F/D) z/ (F,/D) z/ (f/d) z/ | (f/d) z/ (F/d) z/ (F/D) z/ | (F/E) z/ (F,/E) z/ (f/e) z/ | %6
 (f/d) z/ (F/d) z/ (F/D) z/ | (=E/B,) z/ (G,/B,) z/"_cresc." (=e/B) z/ | %8
 (f/A) z/ (F/A) z/ (F/A,) z/ | (F/D) z/ (_A,/D) z/ ([Af]/d) z/ | (g/B) z/ (G/B) z/ (G/B,) z/ | %11
 (G/=E) z/ (B,/E) z/ (g/B) z/ | (f/A) z/ (F/A) z/ (E/A,) z/ | (D/B,) z/ (F,/B,) z/!f! (b/d) z/ | %14
 (e/B) z/ (E/B) z/ (e/B) z/ | (d/B) z/ (D/B) z/ (b/d) z/ | (e/B) z/ (E/B) z/ (e/B) z/ | %17
 (d/B) z/ (F/B) z/ (d/B) z/ | (c/G) z/ (C/G) z/ (c/G) z/ | (c/G) z/ (E/G) z/ ([EA]/F) z/ | %20
 [DB]2 z2 :| %21
V:3
 [B,,,F,,B,,]2 | [B,,,F,,B,,]4 [B,,F,B,]2 | [B,,F,B,]4 [B,,,F,,B,,]2 | [B,,,F,,B,,]4 [B,,F,B,]2 | %4
 [B,,F,B,]4 [B,,,F,,B,,]2 | [B,,,F,,C,]4 [B,,F,C]2 | [B,,F,B,]4 [B,,,B,,]2 | [C,,G,,C,]4 [C,G,C]2 | %8
 [F,C]4 [F,,C,]2 | [B,,,B,,]4 [B,,F,B,]2 | [E,G,B,]4 [E,,B,,]2 | [C,,B,,C,]4 [C,B,C]2 | %12
 [F,C_E]4 [F,,F,]2 | [B,,,F,,B,,]4 .[B,,,B,,]2 | .[G,,G,]2 .[B,,,B,,]2 .[G,,G,]2 | %15
 [B,,B,]4 .[B,,,B,,]2 | .[G,,G,]2 .[B,,,B,,]2 .[G,,G,]2 | .[B,,B,]2 .[B,,,B,,]2 .[F,,F,]2 | %18
 .[B,,B,]2 .[B,,,B,,]2 .[E,,E,]2 | .[B,,B,]2 .[B,,,B,,]2 .[F,,F,]2 | [B,,F,B,]2 z2 :| %21

